X: 15382
T: Glass Case Of Emotion, The
R: reel
M: 4/4
K: Bminor
fede fBaB|abBf fedc|dcG2 dcAd|cAcd edce|
fede fBaB|abBf bfdB|gBfg BfgB|1 acea agfe:|2 eAde cAEC||
B,A,B,D EF~F2|FEDE FEDC|B,A,B,F DEEG,|E2AD CDCA,|
B,A,B,D EFFD|~E3D FEFA|cF~F2 cFBc|1 dG~G2 cAEC:|2 dG~G2 eAAe||

